X:41
T: Frisch auf, in Gottes Namen
N: A0398A
O: Europa, Mitteleuropa, Deutschland
N: Forster III. 1549 No. 80
R: Romanze, Ballade, Lied, religioeses Lied
M: 4/2
L: 1/4
K: G
d2 | d2d2d2d2 | A4A4z2
A2 | c4A2c4BA | G3ABcd4cB | A2B2A2A2 | G6
d2 | d2d2d2d2 | A4A4z2
A2 | c4A2c4BA | G3ABcd4cB | A2B2A2A2 | G6
d2 | d2d2e2c2 | d4B4 | z2
c2c2d2 | e6dc | B2A2B4 | A4z2
A2 | d2d2B2B2 | c4A2
A2 | c2c2A2A2 | d4B4
e4e2e2 | d4c2
d4cB | A2G2A4 | G6

